svgs/regular/window-frame-open.svg

<svg xmlns="http://www.w3.org/2000/svg" viewBox="0 0 512 512"><!--! Font Awesome Pro 6.6.0 by @fontawesome - https://fontawesome.com License - https://fontawesome.com/license (Commercial License) Copyright 2024 Fonticons, Inc. --><path d="M432 240l-152 0 0-192 136 0c8.8 0 16 7.2 16 16l0 176zm-200 0L80 240 80 64c0-8.8 7.2-16 16-16l136 0 0 192zm248 48l0-48 0-176c0-35.3-28.7-64-64-64L96 0C60.7 0 32 28.7 32 64l0 176 0 48 48 0 352 0 48 0zM24 464c-13.3 0-24 10.7-24 24s10.7 24 24 24l32 0 400 0 32 0c13.3 0 24-10.7 24-24s-10.7-24-24-24l-8 0 0-144-48 0 0 144L80 464l0-144-48 0 0 144-8 0z"/></svg>

<svg xmlns="http://www.w3.org/2000/svg" viewBox="0 0 512 512"><!--! Font Awesome Pro 6.5.2 by @fontawesome - https://fontawesome.com License - https://fontawesome.com/license (Commercial License) Copyright 2024 Fonticons, Inc. --><path d="M432 240H280V48H416c8.8 0 16 7.2 16 16V240zm-200 0H80V64c0-8.8 7.2-16 16-16H232V240zm248 48V240 64c0-35.3-28.7-64-64-64H96C60.7 0 32 28.7 32 64V240v48H80 432h48zM24 464c-13.3 0-24 10.7-24 24s10.7 24 24 24H56 456h32c13.3 0 24-10.7 24-24s-10.7-24-24-24h-8V320H432V464H80V320H32V464H24z"/></svg>
